src/images/DR.ONAPP.svg

<svg width="526" height="48" viewBox="0 0 526 48" fill="none" xmlns="http://www.w3.org/2000/svg">
<path d="M11.72 37.272H18.632C20.3813 37.272 22.0027 36.952 23.496 36.312C25.032 35.672 26.376 34.776 27.528 33.624C28.68 32.472 29.576 31.1493 30.216 29.656C30.856 28.12 31.176 26.4773 31.176 24.728C31.176 22.936 30.856 21.272 30.216 19.736C29.576 18.1573 28.68 16.792 27.528 15.64C26.376 14.488 25.032 13.592 23.496 12.952C22.0027 12.2693 20.3813 11.928 18.632 11.928H11.72V37.272ZM0.712 47V2.2H18.888C22.216 2.2 25.3093 2.776 28.168 3.928C31.0267 5.08 33.5227 6.68 35.656 8.728C37.832 10.776 39.5173 13.1653 40.712 15.896C41.9493 18.6267 42.568 21.5707 42.568 24.728C42.568 27.8427 41.9493 30.744 40.712 33.432C39.5173 36.12 37.832 38.488 35.656 40.536C33.5227 42.5413 31.0267 44.12 28.168 45.272C25.3093 46.424 22.216 47 18.888 47H0.712ZM64.3995 47V2.2H87.3115C90.3835 2.2 93.1142 2.81866 95.5035 4.056C97.8928 5.25067 99.7488 6.936 101.072 9.112C102.437 11.2453 103.12 13.6987 103.12 16.472C103.12 19.288 102.352 21.8053 100.816 24.024C99.2795 26.2427 97.2528 27.928 94.7355 29.08L104.528 47H92.2395L83.7915 30.68H75.4075V47H64.3995ZM75.4075 21.72H86.2875C87.9942 21.72 89.3595 21.2507 90.3835 20.312C91.4502 19.3733 91.9835 18.1573 91.9835 16.664C91.9835 15.1707 91.4502 13.9547 90.3835 13.016C89.3595 12.0773 87.9942 11.608 86.2875 11.608H75.4075V21.72ZM129.062 47.704C127.441 47.704 126.033 47.128 124.839 45.976C123.687 44.7813 123.111 43.3733 123.111 41.752C123.111 40.1307 123.687 38.744 124.839 37.592C126.033 36.3973 127.441 35.8 129.062 35.8C130.684 35.8 132.071 36.3973 133.223 37.592C134.417 38.744 135.015 40.1307 135.015 41.752C135.015 43.3733 134.417 44.7813 133.223 45.976C132.071 47.128 130.684 47.704 129.062 47.704ZM176.548 47.704C173.177 47.704 170.041 47.128 167.14 45.976C164.239 44.7813 161.7 43.1387 159.524 41.048C157.348 38.9147 155.641 36.4613 154.404 33.688C153.209 30.872 152.612 27.8427 152.612 24.6C152.612 21.3573 153.209 18.3493 154.404 15.576C155.641 12.76 157.348 10.3067 159.524 8.216C161.7 6.08267 164.239 4.44 167.14 3.288C170.041 2.09333 173.177 1.496 176.548 1.496C179.919 1.496 183.055 2.09333 185.956 3.288C188.857 4.44 191.396 6.08267 193.572 8.216C195.748 10.3067 197.433 12.76 198.628 15.576C199.865 18.3493 200.484 21.3573 200.484 24.6C200.484 27.8427 199.865 30.872 198.628 33.688C197.433 36.4613 195.748 38.9147 193.572 41.048C191.396 43.1387 188.857 44.7813 185.956 45.976C183.055 47.128 179.919 47.704 176.548 47.704ZM176.548 37.592C178.34 37.592 180.004 37.272 181.54 36.632C183.076 35.9493 184.399 35.032 185.508 33.88C186.66 32.728 187.556 31.3627 188.196 29.784C188.836 28.1627 189.156 26.4347 189.156 24.6C189.156 22.7227 188.836 20.9947 188.196 19.416C187.556 17.8373 186.66 16.472 185.508 15.32C184.399 14.168 183.076 13.272 181.54 12.632C180.004 11.9493 178.34 11.608 176.548 11.608C174.756 11.608 173.092 11.9493 171.556 12.632C170.02 13.272 168.676 14.168 167.524 15.32C166.415 16.472 165.54 17.8373 164.9 19.416C164.26 20.9947 163.94 22.7013 163.94 24.536C163.94 26.4133 164.26 28.1627 164.9 29.784C165.54 31.3627 166.415 32.728 167.524 33.88C168.676 35.032 170.02 35.9493 171.556 36.632C173.092 37.272 174.756 37.592 176.548 37.592ZM222.337 47V2.2H232.705L253.057 28.184V2.2H263.425V47H253.697L232.705 19.992V47H222.337ZM298.677 27.544C296.245 27.544 294.026 26.9467 292.021 25.752C290.016 24.5573 288.416 22.9573 287.221 20.952C286.026 18.904 285.429 16.6427 285.429 14.168C285.429 11.6507 286.026 9.38933 287.221 7.384C288.416 5.37867 290.016 3.77867 292.021 2.584C294.026 1.38933 296.245 0.791996 298.677 0.791996C301.152 0.791996 303.37 1.38933 305.333 2.584C307.338 3.77867 308.938 5.4 310.133 7.448C311.328 9.45333 311.925 11.6933 311.925 14.168C311.925 16.6427 311.328 18.904 310.133 20.952C308.938 22.9573 307.338 24.5573 305.333 25.752C303.37 26.9467 301.152 27.544 298.677 27.544ZM298.613 24.408C300.576 24.408 302.282 23.9813 303.733 23.128C305.226 22.232 306.4 21.016 307.253 19.48C308.106 17.9013 308.533 16.1307 308.533 14.168C308.533 12.1627 308.106 10.392 307.253 8.856C306.4 7.32 305.226 6.12533 303.733 5.272C302.282 4.376 300.576 3.928 298.613 3.928C296.736 3.928 295.05 4.376 293.557 5.272C292.064 6.12533 290.89 7.32 290.037 8.856C289.226 10.392 288.821 12.1627 288.821 14.168C288.821 16.1307 289.226 17.9013 290.037 19.48C290.89 21.016 292.064 22.232 293.557 23.128C295.05 23.9813 296.736 24.408 298.613 24.408ZM293.877 20.12V8.088H299.637C300.874 8.088 301.856 8.45066 302.581 9.176C303.349 9.85866 303.733 10.776 303.733 11.928C303.733 12.6107 303.541 13.2507 303.157 13.848C302.816 14.4453 302.325 14.9147 301.685 15.256L304.437 20.12H300.725L298.613 15.96H297.269V20.12H293.877ZM298.869 10.648H297.269V13.592H298.805C299.872 13.592 300.405 13.1013 300.405 12.12C300.405 11.6507 300.277 11.288 300.021 11.032C299.765 10.776 299.381 10.648 298.869 10.648ZM358.302 47L376.67 2.2H389.278L407.39 47H395.486L391.39 36.184H373.918L369.758 47H358.302ZM377.246 27.416H388.126L382.75 13.08L377.246 27.416ZM426.65 47V2.2H450.266C453.21 2.2 455.812 2.84 458.074 4.12C460.378 5.35733 462.191 7.064 463.514 9.24C464.836 11.416 465.498 13.912 465.498 16.728C465.498 19.416 464.836 21.848 463.514 24.024C462.191 26.1573 460.378 27.8427 458.074 29.08C455.77 30.3173 453.167 30.936 450.266 30.936H437.658V47H426.65ZM437.658 21.848H448.986C450.607 21.848 451.908 21.3787 452.89 20.44C453.871 19.5013 454.362 18.2853 454.362 16.792C454.362 15.256 453.871 14.0187 452.89 13.08C451.908 12.0987 450.607 11.608 448.986 11.608H437.658V21.848ZM487.15 47V2.2H510.766C513.71 2.2 516.312 2.84 518.574 4.12C520.878 5.35733 522.691 7.064 524.014 9.24C525.336 11.416 525.998 13.912 525.998 16.728C525.998 19.416 525.336 21.848 524.014 24.024C522.691 26.1573 520.878 27.8427 518.574 29.08C516.27 30.3173 513.667 30.936 510.766 30.936H498.158V47H487.15ZM498.158 21.848H509.486C511.107 21.848 512.408 21.3787 513.39 20.44C514.371 19.5013 514.862 18.2853 514.862 16.792C514.862 15.256 514.371 14.0187 513.39 13.08C512.408 12.0987 511.107 11.608 509.486 11.608H498.158V21.848Z" fill="#28F2FF"/>
</svg>

<svg width="526" height="48" fill="none" xmlns="http://www.w3.org/2000/svg"><path d="M11.72 37.272h6.912c1.75 0 3.37-.32 4.864-.96a12.369 12.369 0 0 0 4.032-2.688 12.56 12.56 0 0 0 2.688-3.968c.64-1.536.96-3.179.96-4.928 0-1.792-.32-3.456-.96-4.992-.64-1.579-1.536-2.944-2.688-4.096a12.369 12.369 0 0 0-4.032-2.688c-1.493-.683-3.115-1.024-4.864-1.024H11.72v25.344ZM.712 47V2.2h18.176c3.328 0 6.421.576 9.28 1.728 2.859 1.152 5.355 2.752 7.488 4.8a21.68 21.68 0 0 1 5.056 7.168c1.237 2.73 1.856 5.675 1.856 8.832 0 3.115-.619 6.016-1.856 8.704a21.87 21.87 0 0 1-5.056 7.104c-2.133 2.005-4.63 3.584-7.488 4.736C25.309 46.424 22.216 47 18.888 47H.712ZM64.4 47V2.2H87.31c3.072 0 5.803.619 8.192 1.856 2.39 1.195 4.246 2.88 5.569 5.056 1.365 2.133 2.048 4.587 2.048 7.36 0 2.816-.768 5.333-2.304 7.552-1.537 2.219-3.563 3.904-6.08 5.056L104.528 47H92.24l-8.448-16.32h-8.385V47H64.4Zm11.007-25.28h10.88c1.707 0 3.072-.47 4.096-1.408 1.067-.939 1.6-2.155 1.6-3.648 0-1.493-.533-2.71-1.6-3.648-1.023-.939-2.389-1.408-4.096-1.408h-10.88V21.72Zm53.655 25.984c-1.621 0-3.029-.576-4.223-1.728-1.152-1.195-1.728-2.603-1.728-4.224s.576-3.008 1.728-4.16c1.194-1.195 2.602-1.792 4.223-1.792 1.622 0 3.009.597 4.161 1.792 1.194 1.152 1.792 2.539 1.792 4.16s-.598 3.03-1.792 4.224c-1.152 1.152-2.539 1.728-4.161 1.728Zm47.486 0c-3.371 0-6.507-.576-9.408-1.728-2.901-1.195-5.44-2.837-7.616-4.928a23.793 23.793 0 0 1-5.12-7.36c-1.195-2.816-1.792-5.845-1.792-9.088 0-3.243.597-6.25 1.792-9.024a22.833 22.833 0 0 1 5.12-7.36c2.176-2.133 4.715-3.776 7.616-4.928 2.901-1.195 6.037-1.792 9.408-1.792 3.371 0 6.507.597 9.408 1.792 2.901 1.152 5.44 2.795 7.616 4.928a22.026 22.026 0 0 1 5.056 7.36c1.237 2.773 1.856 5.781 1.856 9.024 0 3.243-.619 6.272-1.856 9.088a22.916 22.916 0 0 1-5.056 7.36c-2.176 2.09-4.715 3.733-7.616 4.928-2.901 1.152-6.037 1.728-9.408 1.728Zm0-10.112c1.792 0 3.456-.32 4.992-.96 1.536-.683 2.859-1.6 3.968-2.752 1.152-1.152 2.048-2.517 2.688-4.096.64-1.621.96-3.35.96-5.184 0-1.877-.32-3.605-.96-5.184-.64-1.579-1.536-2.944-2.688-4.096a11.665 11.665 0 0 0-3.968-2.688c-1.536-.683-3.2-1.024-4.992-1.024-1.792 0-3.456.341-4.992 1.024a12.369 12.369 0 0 0-4.032 2.688c-1.109 1.152-1.984 2.517-2.624 4.096-.64 1.579-.96 3.285-.96 5.12 0 1.877.32 3.627.96 5.248.64 1.579 1.515 2.944 2.624 4.096a13.262 13.262 0 0 0 4.032 2.752c1.536.64 3.2.96 4.992.96ZM222.337 47V2.2h10.368l20.352 25.984V2.2h10.368V47h-9.728l-20.992-27.008V47h-10.368Zm76.34-19.456c-2.432 0-4.651-.597-6.656-1.792a13.619 13.619 0 0 1-4.8-4.8c-1.195-2.048-1.792-4.31-1.792-6.784 0-2.517.597-4.779 1.792-6.784a13.618 13.618 0 0 1 4.8-4.8c2.005-1.195 4.224-1.792 6.656-1.792 2.475 0 4.693.597 6.656 1.792 2.005 1.195 3.605 2.816 4.8 4.864 1.195 2.005 1.792 4.245 1.792 6.72 0 2.475-.597 4.736-1.792 6.784a13.619 13.619 0 0 1-4.8 4.8c-1.963 1.195-4.181 1.792-6.656 1.792Zm-.064-3.136c1.963 0 3.669-.427 5.12-1.28a9.635 9.635 0 0 0 3.52-3.648c.853-1.579 1.28-3.35 1.28-5.312 0-2.005-.427-3.776-1.28-5.312-.853-1.536-2.027-2.73-3.52-3.584-1.451-.896-3.157-1.344-5.12-1.344-1.877 0-3.563.448-5.056 1.344-1.493.853-2.667 2.048-3.52 3.584-.811 1.536-1.216 3.307-1.216 5.312 0 1.963.405 3.733 1.216 5.312a9.635 9.635 0 0 0 3.52 3.648c1.493.853 3.179 1.28 5.056 1.28Zm-4.736-4.288V8.088h5.76c1.237 0 2.219.363 2.944 1.088.768.683 1.152 1.6 1.152 2.752 0 .683-.192 1.323-.576 1.92a3.604 3.604 0 0 1-1.472 1.408l2.752 4.864h-3.712l-2.112-4.16h-1.344v4.16h-3.392Zm4.992-9.472h-1.6v2.944h1.536c1.067 0 1.6-.49 1.6-1.472 0-.47-.128-.832-.384-1.088-.256-.256-.64-.384-1.152-.384ZM358.302 47 376.67 2.2h12.608L407.39 47h-11.904l-4.096-10.816h-17.472L369.758 47h-11.456Zm18.944-19.584h10.88L382.75 13.08l-5.504 14.336ZM426.65 47V2.2h23.616c2.944 0 5.546.64 7.808 1.92 2.304 1.237 4.117 2.944 5.44 5.12 1.322 2.176 1.984 4.672 1.984 7.488 0 2.688-.662 5.12-1.984 7.296-1.323 2.133-3.136 3.819-5.44 5.056-2.304 1.237-4.907 1.856-7.808 1.856h-12.608V47H426.65Zm11.008-25.152h11.328c1.621 0 2.922-.47 3.904-1.408.981-.939 1.472-2.155 1.472-3.648 0-1.536-.491-2.773-1.472-3.712-.982-.981-2.283-1.472-3.904-1.472h-11.328v10.24ZM487.15 47V2.2h23.616c2.944 0 5.546.64 7.808 1.92 2.304 1.237 4.117 2.944 5.44 5.12 1.322 2.176 1.984 4.672 1.984 7.488 0 2.688-.662 5.12-1.984 7.296-1.323 2.133-3.136 3.819-5.44 5.056-2.304 1.237-4.907 1.856-7.808 1.856h-12.608V47H487.15Zm11.008-25.152h11.328c1.621 0 2.922-.47 3.904-1.408.981-.939 1.472-2.155 1.472-3.648 0-1.536-.491-2.773-1.472-3.712-.982-.981-2.283-1.472-3.904-1.472h-11.328v10.24Z" fill="#28F2FF"/></svg>
